X:1
T:Title
%%score 1 2
L:1/8
Q:1/4=97
M:4/4
K:Bb
V:1 treble nm="Grand Piano, Soprano"
V:2 bass nm="Choir Pad, He Is Able to Deliver"
V:1
 [B,D][CE][DF][DB] [DB][DB][DB][DB] | [FA][FB] [Ec]2 [EG]2 [Ec]2 | %2
w: By~Daniel~Brink~Towner * * * * * * *||
 [Ec][EB][EA][EA] [EA][EA][EA][Ge] | [Fd][Ec] [DB]2 [EG]2 [DF]2 | %4
w: ||
 [B,D][CE][DF][DB] [DB][DB][DB][DB] | [FA][FB] [Ec]2 [EG]2 [Ec]2 | %6
w: ||
 [Ge][Ge][Fd][Ec] [DB][^FA][Gc][GB] | [EA][EG] [DF]2 [EA]2 [DB]2 | [B,D][CE] [DF]4- [DF][DB] | %9
w: |||
 [Ec][DB] [DB]2 [CA]4 | [EF][EA] [Ec]4- [Ec][Fe] | [Fd][Ec] [Ec]2 [DB]4 | %12
w: |||
 [DF][DB] [Fd]4- [Fd][Fd] | [_Ac][Ad] [Af]2 [Ge]4 | [GB][^Fc] [=Fd]2- [Fd][DB] [Fd]2 | %15
w: |||
 [Ec]2 [DB]6- | [DB]2 z2 z4 |] %17
w: ||
V:2
 [B,,F,][B,,F,][B,,B,][B,,F,] [B,,F,][B,,F,][B,,F,][B,,F,] | [C,F,][D,F,] [E,G,]2 [E,C]2 [E,G,]2 | %2
 [E,G,][E,G,][F,C][F,C] [F,C][F,C][F,C][F,A,] | [F,B,]F, [B,,F,]2 [B,,B,]2 [B,,B,]2 | %4
 [B,,F,][B,,F,][B,,B,][B,,F,] [B,,F,][B,,F,][B,,F,][B,,F,] | [C,F,][D,F,] [E,G,]2 [E,C]2 [E,G,]2 | %6
 [E,B,][E,B,][F,B,][F,A,] [G,B,][D,C][E,B,][E,E] | [E,C][E,B,] [F,B,]2 F,2 [B,,F,]2 | %8
 z4 [B,,B,][B,,B,][B,,B,][B,,F,] | [B,,F,][B,,F,]F,F, F,F,F,F, | z4 [F,A,][F,A,][F,A,][F,A,] | %11
 [F,B,][F,A,][B,,B,][B,,B,] [B,,F,][B,,F,][B,,F,][B,,F,] | z4 B,B,B,B, | %13
 B,B,[E,B,][E,B,] [E,B,][E,B,][E,B,][E,B,] | [E,B,][E,B,] [F,B,]2- [F,B,][F,B,] [F,B,]2 | %15
 [F,A,]2 [B,,B,]6- | [B,,B,]2 z2 z4 |] %17

